assets/email.svg

<svg fill="none" height="40" viewBox="0 0 40 40" width="40" xmlns="http://www.w3.org/2000/svg"><rect fill="#131117" height="40" rx="20" width="40"/><path d="m12.9922 13.5312c-.8928 0-1.6172.7244-1.6172 1.6172 0 .5088.2392.9872.6469 1.2938l7.3312 5.4984c.3841.2864.9097.2864 1.2938 0l7.3312-5.4984c.4077-.3066.6469-.785.6469-1.2938 0-.8928-.7244-1.6172-1.6172-1.6172zm-1.6172 3.7735v7.0078c0 1.1893.9669 2.1563 2.1562 2.1563h12.9376c1.1893 0 2.1562-.967 2.1562-2.1563v-7.0078l-7.3313 5.4984c-.7681.5761-1.8193.5761-2.5874 0z" fill="#f5f5f5"/></svg>

<svg width="40" height="40" viewBox="0 0 40 40" fill="none" xmlns="http://www.w3.org/2000/svg">
<rect width="40" height="40" rx="20" fill="#131117"/>
<path d="M12.9922 13.5312C12.0994 13.5312 11.375 14.2556 11.375 15.1484C11.375 15.6572 11.6142 16.1356 12.0219 16.4422L19.3531 21.9406C19.7372 22.227 20.2628 22.227 20.6469 21.9406L27.9781 16.4422C28.3858 16.1356 28.625 15.6572 28.625 15.1484C28.625 14.2556 27.9006 13.5312 27.0078 13.5312H12.9922ZM11.375 17.3047V24.3125C11.375 25.5018 12.3419 26.4688 13.5312 26.4688H26.4688C27.6581 26.4688 28.625 25.5018 28.625 24.3125V17.3047L21.2937 22.8031C20.5256 23.3792 19.4744 23.3792 18.7063 22.8031L11.375 17.3047Z" fill="#F5F5F5"/>
</svg>
